X:1
T:3 Gesänge für vier Männerstimmen
T:Maigefühl
T:Konrad Max Kunz, Op. 4, No. 3
T:Ludwig Steub
T:Maigefühl
T:für Chor oder Soloquartett
T:CPDL   —   Creative Commons Attribution Non Commercial 3.0
T:CPDL   —   Creative Commons Attribution Non Commercial 3.0
T:CPDL   —   Creative Commons Attribution Non Commercial 3.0
C:Konrad Max Kunz
Z:Ludwig Steub
Z:CPDL   —   Creative Commons Attribution Non Commercial 3.0
%%score [ ( 1 2 ) ( 3 4 ) ]
L:1/8
Q:1/4=76
M:2/4
K:A
V:1 treble-8 nm="T"
V:2 treble-8 
V:3 bass nm="B"
V:4 bass 
V:1
"^Andante"!p! E |!<(! cc ff!<)! |!>(! e>!>)!c A!p!A | Gd cB |!>(! ^Bc!>)! z!pp! c | c=d ee | %6
w: 1. Der|Him- mel ist so|hell und blau, die|Land- schaft ist so|son- nig, im|Gra- se blitzt der|
w: 2. Die|Blu- men blüh'n so|schön und hold, die|Wäl- der grü- nen|wie- der, im|Lau- be spielt der|
 !>!A>B c z/ c/ |"^molto cresc." ce ^dc | !>!BG/ z/!f! eB | (g3 f) | e2 z!p! B | dd =ff | %12
w: Mai- en- tau, der|Lenz er ist so|won- nig, ist so|won- *|nig; doch|weckt er al- tes|
w: Son- ne Gold, vom|Zwei- ge schal- len|Lie- der, schal- len|Lie- *|der; doch|wacht mir al- tes|
 ^G>A B z | z4 |!>(! z4!>)! |!p! z2 z!p! B | cd cB | !>!f>e e/ z/!f! c | de dc | %19
w: Seh- nen auf,|||Ge-|dan- ken geh'n den|al- ten Lauf, Ge-|dan- ken geh'n den|
w: Seh- nen auf,|||||||
!>(! =g>f f/!>)! z/!p! d | (d !>!f2) e/d/ | c2 z!pp! c | (d F2 G) | A2 z :|!p! E |!<(! cc ff!<)! | %26
w: al- ten Lauf zur|Liebs- * ten _|mein, zur|Liebs- * *|ten.|3. Dann|erst emp- fänd' ich|
w: |||||||
!>(! e>!>)!c A!p!A | Gd cB |!>(! ^Bc!>)! z!pp! c | c=d ee |!>(! A>!>)!B c z/ c/ | %31
w: Früh- lings- luft, dann|fühlt' ich Mai- en-|won- nen, und|freut' mich an der|Blu- men Duft, und|
w: |||||
"^molto crescendo" ce ^dc |!>(! BG/!>)! z/!f! eB | (g3 f) | e2 z!p! B | dd =ff | ^G>A B z | z4 | %38
w: freut' mich an der|Son- nen, an der|Son- *|nen, wenn|sie mich wie- der|lie- ben sollt',||
w: |||||||
!>(! z4!>)! |"^cresc." z2 z!p! !>!B |"^cresc. e un poco stringendo" cd cB | %41
w: |wenn|sie mich wie- der|
w: |||
!>(! f>e!>)! e/ z/!f! c | de dc | =g3 f |!>(! !fermata!f2!>)! z[Q:1/4=80]"^Andante"!p! d | %45
w: lie- ben sollt', wenn|sie mich wie- der|lie- ben|wollt', die|
w: ||||
 (d !>!f2) e/d/ | c2 z!pp! c |[Q:1/4=76]"^ritenuto" (d F2 G) | A2 z |] %49
w: Liebs- * te _|mein, die|Liebs- * *|te.|
w: ||||
V:2
 E | cc cc | c>E EF | GB AG | GA x c | cc BB | A>F G x/ G/ | Fc BF | GE/ x/ BG | (e2 ^d2) | e2 z2 | %11
w: |||||||||||
w: |||||||||||
 z4 | z2 z z/!mf! B/ | dd =ff | ^G3 A | B3 G | AB AB | c>c c/ x/ A | AA Ac | c>d d/ x/ B | %20
w: |doch|weckt er al- tes|1\-2. Seh- nen|auf, *|||||
w: |doch|wacht mir al- tes|||||||
 (B d2) c/B/ | A2 x A | (B D2 E) | E2 x :| E | cc cc | c>E EF | GB AG | GA x c | cc BB | %30
w: ||||||||||
w: ||||||||||
 A>F G x/ G/ | Fc BF | GE/ x/ BG | (e2 ^d2) | e2 z2 | z4 | z2 z z/!mf! B/ | dd =ff | ^G3 A | B3 G | %40
w: ||||||wenn|sie mich wie- der|lie- ben|wollt', *|
w: ||||||||||
 AB AB | c>c c/ x/ A | AA Ac | c3 d | d2 x B | (B d2) c/B/ | A2 x A | (B D2 E) | E2 x |] %49
w: |||||||||
w: |||||||||
V:3
!p! E, |!<(! A,A, A,A,!<)! |!>(! A,>!>)!A, A,!p!F, | E,E, E,E, |!>(! E,E,!>)! z!pp! A, | %5
 A,A, B,G, | !>!F,>F, ^E, z/ E,/ |"^molto cresc." F,F, F,^D, | !>!E,B,,/ z/!f! G,E, | (B,3 A,) | %10
 G,2 z!p! G, | B,B, A,D, | E,>^F, G, z | z4 |!>(! z4!>)! |!p! z2 z!p! E, | E,E, E,G, | %17
 !>!A,>A, A,/ z/!f! A,/=G,/ | F,A, A,A, |!>(! A,>A, A,/!>)! z/!p! D | (D !>!F,2) G, | %21
 (A,C A,)!pp!F, | (D, F,2 E,/D,/) | C,2 z :|!p! E, |!<(! A,A, A,A,!<)! |!>(! A,>!>)!A, A,!p!F, | %27
 E,E, E,E, |!>(! E,E,!>)! z!pp! A, | A,A, B,G, |!>(! F,>!>)!F, ^E, z/ E,/ | %31
"^molto crescendo" F,F, F,^D, |!>(! E,B,,/!>)! z/!f! G,E, | (B,3 A,) | G,2 z!p! G, | B,B, A,D, | %36
 E,>^F, G, z | z4 |!>(! z4!>)! |"^cresc." z2 z!p! !>!E, |"^cresc. e un poco stringendo" E,E, E,G, | %41
!>(! A,>A,!>)! A,/ z/!f! A,/=G,/ | F,A, A,A, | A,3 A, |!>(! !fermata!A,2!>)! z!p! D | %45
 (D !>!F,2) G, | (A,C A,)!pp!F, | (D, F,2 E,/D,/) | C,2 z |] %49
V:4
 E, | A,A, F,F, | C,>A,, C,^D, | E,E, E,E, | A,,A,, x A, | A,F, G,E, | F,>D, C, x/ B,,/ | %7
 A,,^A,, B,,=A,, | G,,B,,/ x/ B,,E, | B,,4 | E,2 z2 | z4 | z2 z z/!mf! G,/ | B,B, A,D, | E,3 ^F, | %15
 G,3 E,/D,/ | C,B,, E,D, | C,>E, A,/ x/ E, | F,=G, F,E, | D,>D, D,/ x/ B, | (B, D,2) E, | %21
 F,2 z F, | (B,, D,2 C,/B,,/) | A,,2 x :| E, | A,A, F,F, | C,>A,, C,^D, | E,E, E,E, | A,,A,, x A, | %29
 A,F, G,E, | F,>D, C, x/ B,,/ | A,,^A,, B,,=A,, | G,,B,,/ x/ B,,E, | B,,4 | E,2 z2 | z4 | %36
 z2 z z/!mf! G,/ | B,B, A,D, | E,3 ^F, | G,3 E,/D,/ | C,B,, E,D, | C,>E, A,/ x/ E, | F,=G, F,E, | %43
 D,3 D, | D,2 x B, | (B, D,2) E, | F,2 z F, | (B,, D,2 C,/B,,/) | A,,2 x |] %49

